svgs/denoiseit.svg

<svg xmlns="http://www.w3.org/2000/svg" viewBox="0 0 192 192"><path d="M98.527 96V30.799h5.071v130.402h-5.071Zm-29.072 49.625c-.102-.299-.927-5.515-1.833-11.591-.906-6.077-3.163-21.045-5.015-33.264L59.24 78.554l-.604 2.475c-.333 1.361-2.292 10.176-4.354 19.589-2.062 9.413-3.851 17.115-3.975 17.115-.124 0-2.708-3.993-5.744-8.874-3.035-4.881-5.572-8.875-5.637-8.875-.065 0-2.52 3.844-5.455 8.541-3.449 5.52-5.429 8.37-5.598 8.06-.564-1.038-11.969-29.363-11.864-29.465.062-.06 1.049-.522 2.193-1.027 1.936-.854 2.105-.874 2.418-.288.186.346 2.078 4.942 4.204 10.212 2.127 5.27 3.973 9.696 4.102 9.835.129.139 2.25-2.993 4.713-6.959 2.463-3.967 4.67-7.475 4.905-7.797.361-.493 1.129.546 4.94 6.678 3.383 5.443 4.579 7.105 4.776 6.638.144-.343 1.802-7.633 3.684-16.2 7.044-32.059 7.947-36.041 8.173-36.041.127 0 .5 1.915.83 4.256.33 2.341 2.489 16.644 4.799 31.785 2.311 15.141 4.297 28.308 4.416 29.259.118.951.269 1.675.335 1.609.066-.066 2.089-9.076 4.495-20.022 2.407-10.946 4.461-20.146 4.565-20.445.227-.652-.104-1.406 6.186 14.127 2.702 6.674 5.02 12.255 5.151 12.403.13.147 1.121-1.523 2.202-3.713 1.08-2.19 2.051-3.981 2.158-3.981.107-.001.162 2.404.123 5.342l-.07 5.344-2.273 4.618c-1.25 2.54-2.36 4.618-2.466 4.618-.107 0-2.231-5.037-4.72-11.193-2.49-6.157-4.608-11.117-4.708-11.023-.099.094-2.727 11.61-5.84 25.592-3.112 13.982-5.742 25.177-5.845 24.878Zm-17.671-7.516c-2.225-1.988-1.689-5.529 1.032-6.82 1.749-.83 3.377-.428 4.793 1.185 1.029 1.172 1.134 1.494.968 2.965-.257 2.284-1.788 3.666-4.06 3.666-1.254 0-1.87-.225-2.733-.996Zm80.654-.854c-.085-.278-2.554-12.404-5.487-26.947-2.932-14.543-5.413-26.582-5.512-26.752-.161-.276-2.799 7.818-7.391 22.677-.847 2.739-1.629 4.975-1.739 4.969-.109-.006-1.467-1.875-3.017-4.152l-2.819-4.142.102-4.21.102-4.211 2.006 2.908 2.006 2.907 1.958-6.226c8.092-25.733 9.747-30.793 9.914-30.314.105.299 2.191 10.446 4.636 22.548 2.444 12.103 4.533 22.005 4.64 22.004.108-.001 2.39-15.446 5.072-34.321 5.64-39.699 5.587-39.358 5.879-38.122.117.498 2.636 16.839 5.596 36.313 2.96 19.474 5.464 35.405 5.564 35.403.099-.002 2.123-6.237 4.496-13.855s4.394-13.997 4.49-14.174c.097-.178.377.066.623.543.824 1.599 12.58 30.778 12.442 30.881-.312.232-4.415 1.688-4.503 1.598-.053-.055-1.811-4.337-3.907-9.517-3.326-8.221-3.853-9.302-4.149-8.512-.187.498-2.752 8.608-5.7 18.021-2.949 9.413-5.434 17.042-5.524 16.953-.089-.089-2.242-13.74-4.784-30.336-2.543-16.596-4.707-29.93-4.811-29.631-.103.298-2.343 15.702-4.978 34.23-2.634 18.528-4.848 33.751-4.919 33.829-.072.079-.2-.085-.286-.362Zm-46.475-6.807c-1.47-.92-1.925-1.787-1.925-3.671 0-2.062 1.821-3.972 3.785-3.972 3.18 0 5.208 2.785 4.049 5.559-.99 2.371-3.844 3.377-5.909 2.084Zm-50.68-8.875c-3.835-3.834 1.787-9.533 5.702-5.782 2.784 2.667.832 7.014-3.149 7.014-1.02 0-1.603-.281-2.553-1.232Zm5.65-35.246c-1.113-.405-2.533-2.084-2.753-3.255-.486-2.588 1.397-4.821 4.064-4.821 4.297 0 5.685 5.905 1.82 7.739-1.265.6-2.147.695-3.131.337Zm40.464-14.24c-1.077-.846-1.867-2.924-1.567-4.12.352-1.399 1.645-2.719 3.089-3.151 2.653-.795 5.104 1.23 5.104 4.216 0 1.021-.281 1.603-1.232 2.554-1.033 1.033-1.492 1.232-2.849 1.232-1.073 0-1.93-.246-2.545-.731Zm-13.745-8.872c-1.256-.707-2.087-2.3-2.087-3.999 0-1.868 1.917-3.785 3.785-3.785 2.827 0 4.878 2.282 4.39 4.885-.479 2.55-3.852 4.156-6.088 2.899Z"/></svg>

<svg
    xmlns="http://www.w3.org/2000/svg"
    viewBox="0 0 192 192"
    id="vector">
    <path
        id="path"
        d="M 98.527 96 L 98.527 30.799 L 103.598 30.799 L 103.598 161.201 L 98.527 161.201 Z M 69.455 145.625 C 69.353 145.326 68.528 140.11 67.622 134.034 C 66.716 127.957 64.459 112.989 62.607 100.77 L 59.24 78.554 L 58.636 81.029 C 58.303 82.39 56.344 91.205 54.282 100.618 C 52.22 110.031 50.431 117.733 50.307 117.733 C 50.183 117.733 47.599 113.74 44.563 108.859 C 41.528 103.978 38.991 99.984 38.926 99.984 C 38.861 99.984 36.406 103.828 33.471 108.525 C 30.022 114.045 28.042 116.895 27.873 116.585 C 27.309 115.547 15.904 87.222 16.009 87.12 C 16.071 87.06 17.058 86.598 18.202 86.093 C 20.138 85.239 20.307 85.219 20.62 85.805 C 20.806 86.151 22.698 90.747 24.824 96.017 C 26.951 101.287 28.797 105.713 28.926 105.852 C 29.055 105.991 31.176 102.859 33.639 98.893 C 36.102 94.926 38.309 91.418 38.544 91.096 C 38.905 90.603 39.673 91.642 43.484 97.774 C 46.867 103.217 48.063 104.879 48.26 104.412 C 48.404 104.069 50.062 96.779 51.944 88.212 C 58.988 56.153 59.891 52.171 60.117 52.171 C 60.244 52.171 60.617 54.086 60.947 56.427 C 61.277 58.768 63.436 73.071 65.746 88.212 C 68.057 103.353 70.043 116.52 70.162 117.471 C 70.28 118.422 70.431 119.146 70.497 119.08 C 70.563 119.014 72.586 110.004 74.992 99.058 C 77.399 88.112 79.453 78.912 79.557 78.613 C 79.784 77.961 79.453 77.207 85.743 92.74 C 88.445 99.414 90.763 104.995 90.894 105.143 C 91.024 105.29 92.015 103.62 93.096 101.43 C 94.176 99.24 95.147 97.449 95.254 97.449 C 95.361 97.448 95.416 99.853 95.377 102.791 L 95.307 108.135 L 93.034 112.753 C 91.784 115.293 90.674 117.371 90.568 117.371 C 90.461 117.371 88.337 112.334 85.848 106.178 C 83.358 100.021 81.24 95.061 81.14 95.155 C 81.041 95.249 78.413 106.765 75.3 120.747 C 72.188 134.729 69.558 145.924 69.455 145.625 Z M 51.784 138.109 C 49.559 136.121 50.095 132.58 52.816 131.289 C 54.565 130.459 56.193 130.861 57.609 132.474 C 58.638 133.646 58.743 133.968 58.577 135.439 C 58.32 137.723 56.789 139.105 54.517 139.105 C 53.263 139.105 52.647 138.88 51.784 138.109 Z M 132.438 137.255 C 132.353 136.977 129.884 124.851 126.951 110.308 C 124.019 95.765 121.538 83.726 121.439 83.556 C 121.278 83.28 118.64 91.374 114.048 106.233 C 113.201 108.972 112.419 111.208 112.309 111.202 C 112.2 111.196 110.842 109.327 109.292 107.05 L 106.473 102.908 L 106.575 98.698 L 106.677 94.487 L 108.683 97.395 L 110.689 100.302 L 112.647 94.076 C 120.739 68.343 122.394 63.283 122.561 63.762 C 122.666 64.061 124.752 74.208 127.197 86.31 C 129.641 98.413 131.73 108.315 131.837 108.314 C 131.945 108.313 134.227 92.868 136.909 73.993 C 142.549 34.294 142.496 34.635 142.788 35.871 C 142.905 36.369 145.424 52.71 148.384 72.184 C 151.344 91.658 153.848 107.589 153.948 107.587 C 154.047 107.585 156.071 101.35 158.444 93.732 C 160.817 86.114 162.838 79.735 162.934 79.558 C 163.031 79.38 163.311 79.624 163.557 80.101 C 164.381 81.7 176.137 110.879 175.999 110.982 C 175.687 111.214 171.584 112.67 171.496 112.58 C 171.443 112.525 169.685 108.243 167.589 103.063 C 164.263 94.842 163.736 93.761 163.44 94.551 C 163.253 95.049 160.688 103.159 157.74 112.572 C 154.791 121.985 152.306 129.614 152.216 129.525 C 152.127 129.436 149.974 115.785 147.432 99.189 C 144.889 82.593 142.725 69.259 142.621 69.558 C 142.518 69.856 140.278 85.26 137.643 103.788 C 135.009 122.316 132.795 137.539 132.724 137.617 C 132.652 137.696 132.524 137.532 132.438 137.255 Z M 85.963 130.448 C 84.493 129.528 84.038 128.661 84.038 126.777 C 84.038 124.715 85.859 122.805 87.823 122.805 C 91.003 122.805 93.031 125.59 91.872 128.364 C 90.882 130.735 88.028 131.741 85.963 130.448 Z M 35.283 121.573 C 31.448 117.739 37.07 112.04 40.985 115.791 C 43.769 118.458 41.817 122.805 37.836 122.805 C 36.816 122.805 36.233 122.524 35.283 121.573 Z M 40.933 86.327 C 39.82 85.922 38.4 84.243 38.18 83.072 C 37.694 80.484 39.577 78.251 42.244 78.251 C 46.541 78.251 47.929 84.156 44.064 85.99 C 42.799 86.59 41.917 86.685 40.933 86.327 Z M 81.397 72.087 C 80.32 71.241 79.53 69.163 79.83 67.967 C 80.182 66.568 81.475 65.248 82.919 64.816 C 85.572 64.021 88.023 66.046 88.023 69.032 C 88.023 70.053 87.742 70.635 86.791 71.586 C 85.758 72.619 85.299 72.818 83.942 72.818 C 82.869 72.818 82.012 72.572 81.397 72.087 Z M 67.652 63.215 C 66.396 62.508 65.565 60.915 65.565 59.216 C 65.565 57.348 67.482 55.431 69.35 55.431 C 72.177 55.431 74.228 57.713 73.74 60.316 C 73.261 62.866 69.888 64.472 67.652 63.215 Z"
        fill="#000000"
        stroke-width="12"/>
</svg>
